elements/app-hax/lib/assets/images/FullVolume.svg

<svg xmlns="http://www.w3.org/2000/svg" fill="none" width="60" height="51" viewBox="0 0 60 51"><path d="M0 16h12v19H0V16Zm12-4h4v27h-4V12Zm4-4h4v35h-4V8Zm4-4h4v43h-4V4Zm4-4h4v51h-4V0Zm28 5h4v8h-4V5Zm-4-4h4v4h-4V1Zm0 44h4v4h-4v-4Zm4-8h4v8h-4v-8Zm4-24h4v24h-4V13Zm-14 0h4v4h-4v-4Zm-4-4h4v4h-4V9Zm0 28h4v4h-4v-4Zm4-4h4v4h-4v-4Zm4-16h4v16h-4V17Zm-10 4h4v8h-4v-8Zm-4-4h4v4h-4v-4Zm0 12h4v4h-4v-4Z" fill="#000"/></svg>

<svg width="60" height="51" viewBox="0 0 60 51" fill="none" xmlns="http://www.w3.org/2000/svg">
<path d="M0 16H12V35H0V16Z" fill="black"/>
<path d="M12 12H16V39H12V12Z" fill="black"/>
<path d="M16 8H20V43H16V8Z" fill="black"/>
<path d="M20 4H24V47H20V4Z" fill="black"/>
<path d="M24 0H28V51H24V0Z" fill="black"/>
<path d="M52 5H56V13H52V5Z" fill="black"/>
<path d="M48 1H52V5H48V1Z" fill="black"/>
<path d="M48 45H52V49H48V45Z" fill="black"/>
<path d="M52 37H56V45H52V37Z" fill="black"/>
<path d="M56 13H60V37H56V13Z" fill="black"/>
<path d="M42 13H46V17H42V13Z" fill="black"/>
<path d="M38 9H42V13H38V9Z" fill="black"/>
<path d="M38 37H42V41H38V37Z" fill="black"/>
<path d="M42 33H46V37H42V33Z" fill="black"/>
<path d="M46 17H50V33H46V17Z" fill="black"/>
<path d="M36 21H40V29H36V21Z" fill="black"/>
<path d="M32 17H36V21H32V17Z" fill="black"/>
<path d="M32 29H36V33H32V29Z" fill="black"/>
</svg>
